_includes/icons/ios-facebook-messenger.svg

<svg fill="#666" height="50" viewBox="0 0 50 50" width="50" xmlns="http://www.w3.org/2000/svg"><path d="m25 2c-12.652344 0-23 9.597656-23 21.5 0 6.507813 3.132813 12.285156 8 16.21875v8.9375l1.46875-.78125 7.21875-3.75c2.015625.539063 4.113281.875 6.3125.875 12.652344 0 23-9.597656 23-21.5s-10.347656-21.5-23-21.5zm0 2c11.644531 0 21 8.757813 21 19.5 0 10.742188-9.355469 19.5-21 19.5-2.164062 0-4.257812-.3125-6.21875-.875l-.375-.09375-.34375.1875-6.0625 3.15625v-6.5625l-.375-.28125c-4.664062-3.589844-7.625-8.992187-7.625-15.03125 0-10.742187 9.355469-19.5 21-19.5zm-2.28125 13.71875-12.03125 12.75 10.8125-6.0625 5.78125 6.1875 11.875-12.875-10.53125 5.90625z"/></svg>

<svg xmlns="http://www.w3.org/2000/svg" viewBox="0 0 50 50" width="50" height="50" fill="#666"><path d="M 25 2 C 12.347656 2 2 11.597656 2 23.5 C 2 30.007813 5.132813 35.785156 10 39.71875 L 10 48.65625 L 11.46875 47.875 L 18.6875 44.125 C 20.703125 44.664063 22.800781 45 25 45 C 37.652344 45 48 35.402344 48 23.5 C 48 11.597656 37.652344 2 25 2 Z M 25 4 C 36.644531 4 46 12.757813 46 23.5 C 46 34.242188 36.644531 43 25 43 C 22.835938 43 20.742188 42.6875 18.78125 42.125 L 18.40625 42.03125 L 18.0625 42.21875 L 12 45.375 L 12 38.8125 L 11.625 38.53125 C 6.960938 34.941406 4 29.539063 4 23.5 C 4 12.757813 13.355469 4 25 4 Z M 22.71875 17.71875 L 10.6875 30.46875 L 21.5 24.40625 L 27.28125 30.59375 L 39.15625 17.71875 L 28.625 23.625 Z"/></svg>
